X:1
T:Title
%%score { ( 1 3 ) | ( 2 4 ) }
L:1/8
M:4/4
K:Bb
V:1 treble nm="Grand Piano"
V:3 treble 
V:2 bass 
V:4 bass 
V:1
 z4 z2[Q:1/4=100] FF | [DB]2 [DB]2 [EA]2 [EG][EG] | [DF]2 D2 F2 B,C | D2 DD D2 D2 | G6 DD | %5
 D2 D2 F2 FF | G2 G2 [FB]2 [DB][DB] | [Ec]2 [EF][DF] [CA]2 [=EG]2 | F6 FF | B2 B2 A2 GG | %10
 [DF]2 D2 F2 B,C | D2 DD D2 D2 | G6 FF | B2 BB c2 cc | [Fd]2 [FB]2 B2 GG | F2 BB B2 A2 | %16
[M:3/4] [DB]6 |[M:1/4] [DF]2 |[M:4/4] [DB][EB] [FB]2 [GB]2 [FA][FB] | c4 z4 | z2 [Ad]2 z4 | %21
 [Fc]6 [Fc]2 | [Fd]2 [Fd][Fd] [GB]2 [GB][EG] |[M:9/8] [DF]3 [FB] [Ge]2- [Ge][Fd]c | %24
[M:4/4] B2 BB B2 A2 |[M:3/4] [DB]6 |] %26
V:2
 z4 z2 F,F, | [B,,F,]2 [B,,F,]2 [B,,F,]2 [B,,G,][B,,A,] | [B,,B,]2 [B,,F,B,]2 [B,,D,B,]2 D,E, | %3
 F,2 F,F, [^F,A,C]2 [F,A,C]2 | [G,B,]6 [G,B,][G,B,] | [G,B,]2 [G,B,]2 [F,A,C]2 [F,A,E][F,B,D] | %6
 [E,B,E]2 [E,B,E]2 [D,B,]2 [B,,F,][B,,F,] | [A,,F,]2 [A,,F,][B,,F,] [C,F,]2 [C,B,]2 | %8
 [F,A,]6 [A,CE][A,CE] | [B,D]2 [B,D]2 [F,CE]2 [F,A,E][F,A,E] | %10
 [B,,B,]2 [B,,F,B,]2 [B,,D,B,]2 D,E, | F,2 F,F, [^F,A,C]2 [F,A,C]2 | [G,B,]6 [A,CE][A,CE] | %13
 [B,D]2 [B,D][B,D] [F,A,F]2 [F,A,F][F,A,F] | [B,,B,]2 [D,B,]2 [E,G,E]2 [E,B,E][E,B,E] | %15
 [F,B,D]2 [F,DF][F,DF] [F,CE]2 [F,CE]2 |[M:3/4] [B,,B,]6 |[M:1/4] [B,,F,]2 | %18
[M:4/4] [B,,F,][C,F,] [D,B,]2 [E,B,]2 [E,B,][D,B,] | .A,2 z [C,B,] [F,A,]2 [F,A,][E,A,] | %20
 [D,A,][=E,D] .[^F,D]2 [G,B,G]2 [C,B,]2 | [F,A,]6 [E,A,]2 | %22
 [D,B,]2 [D,B,][D,B,] [E,B,]2 [E,B,][E,B,] |[M:9/8] [B,,B,]3 [D,B,] [C,A,]2- [C,A,][D,B,][E,G,E] | %24
[M:4/4] [F,D]2 [F,D][F,B,D] [F,CE]2 [F,CE]2 |[M:3/4] [B,,B,]6 |] %26
V:3
 x8 | x8 | x8 | x8 | x8 | x8 | x8 | x8 | x8 | x8 | x8 | x8 | x8 | x8 | x8 | x8 |[M:3/4] x6 | %17
[M:1/4] x2 |[M:4/4] x8 | F [G,=E]2 [Fc] [Fc]2 [Fc][Fc] | [^Fd][Gd] z C d2 [=Ec]2 | x8 | x8 | %23
[M:9/8] x9 |[M:4/4] x8 |[M:3/4] x6 |] %26
V:4
 x8 | x8 | x8 | x8 | x8 | x8 | x8 | x8 | x8 | x8 | x8 | x8 | x8 | x8 | x8 | x8 |[M:3/4] x6 | %17
[M:1/4] x2 |[M:4/4] x8 | C,4 z4 | x8 | x8 | x8 |[M:9/8] x9 |[M:4/4] x8 |[M:3/4] x6 |] %26

